public/img/events/new-life.svg

<svg width="200" height="200" viewBox="0 0 200 200" fill="none" xmlns="http://www.w3.org/2000/svg">
<path d="M5.24188e-05 49.1106C0.159888 66.6755 6.42856 83.3491 14.7205 98.6035C23.0359 113.901 34.8247 126.931 46.8709 139.335C52.7341 145.375 58.9248 151.095 65.7315 156.056C72.7604 161.181 80.7561 165.102 88.7868 168.386C90.7789 169.199 92.7905 169.969 94.8177 170.693C96.8059 171.404 99.0865 171.862 100.915 172.929C102.755 174 104.77 174.633 106.778 175.317C108.914 176.045 111.07 176.729 113.234 177.37C121.881 179.923 130.73 181.752 139.677 182.843C157.415 185.009 175.515 184.149 192.937 180.138C195.074 179.645 197.198 179.106 199.311 178.519C200.52 178.187 200.005 176.299 198.793 176.635C181.757 181.342 163.968 182.956 146.359 181.561C137.564 180.865 128.835 179.411 120.274 177.264C115.959 176.181 111.686 174.923 107.472 173.492C106.486 173.16 105.507 172.815 104.529 172.46C103.437 172.065 102.513 171.545 101.492 171.009C99.6946 170.063 97.5778 169.606 95.6676 168.926C87.5666 166.044 79.7503 162.432 72.3354 158.065C65.1077 153.808 58.6597 148.202 52.6562 142.369C46.6877 136.568 40.9531 130.445 35.4368 124.21C29.71 117.736 24.4939 110.82 19.8976 103.49C15.2897 96.1445 11.364 88.314 8.25693 80.2098C5.21616 72.2698 3.01744 63.9585 2.25725 55.4712C2.06622 53.3562 1.96876 51.2334 1.94927 49.1106C1.93757 47.8557 -0.0116429 47.8518 5.24188e-05 49.1106Z" fill="black"/>
<path d="M97.8425 135.207C103.14 139.988 108.953 144.16 114.98 147.956C120.968 151.728 127.17 155.145 133.373 158.55C139.692 162.022 146.144 165.231 152.806 167.995C159.469 170.759 166.322 173.07 173.336 174.758C180.778 176.553 188.384 177.687 196.024 178.128C196.968 178.183 197.911 178.226 198.859 178.261C200.114 178.308 200.11 176.35 198.859 176.307C191.288 176.033 183.756 175.071 176.353 173.449C169.367 171.912 162.525 169.766 155.871 167.143C149.267 164.539 142.858 161.459 136.608 158.089C130.426 154.758 124.266 151.353 118.27 147.694C112.31 144.054 106.513 140.106 101.199 135.559C100.532 134.988 99.8775 134.41 99.2264 133.823C98.2908 132.987 96.9069 134.363 97.8425 135.207Z" fill="black"/>
<path d="M60.4534 49.3607C60.8511 55.7448 61.6152 62.1093 62.7652 68.4034C63.8997 74.6154 65.4201 80.7571 67.3147 86.7814C69.2249 92.8566 71.5211 98.8067 74.1642 104.6C74.4956 105.332 74.8348 106.059 75.1817 106.782C75.3494 107.13 75.517 107.482 75.6846 107.83C75.8912 108.256 76.1563 108.553 76.4877 108.885C76.745 109.143 77.0296 109.382 77.205 109.702C77.3921 110.046 77.5715 110.398 77.7586 110.742C78.1211 111.407 78.4915 112.067 78.8696 112.72C80.3666 115.304 82.0079 117.806 83.7778 120.211C87.3136 125.019 91.3368 129.456 95.7966 133.42C96.3502 133.909 96.9077 134.394 97.473 134.871C97.8745 135.211 98.4554 135.266 98.853 134.871C99.2 134.523 99.2584 133.831 98.853 133.487C94.3698 129.703 90.2764 125.457 86.6704 120.821C84.8732 118.514 83.2086 116.098 81.6765 113.608C80.8968 112.345 80.1522 111.059 79.4466 109.753C79.2712 109.432 79.0997 109.112 78.932 108.787C78.7176 108.381 78.4525 108.084 78.1289 107.759C77.8638 107.493 77.5793 107.255 77.4116 106.919C77.2362 106.575 77.0764 106.223 76.9087 105.871C74.2149 100.214 71.8759 94.3891 69.9033 88.439C67.9345 82.5007 66.3362 76.4411 65.1121 70.3073C63.8841 64.1578 63.042 57.934 62.5664 51.679C62.5079 50.905 62.4533 50.1309 62.4066 49.3568C62.3247 48.1097 60.3755 48.1019 60.4534 49.3607Z" fill="black"/>
<path fill-rule="evenodd" clip-rule="evenodd" d="M0.738356 48.274C20.9741 48.313 40.8551 48.313 61.0363 48.274L61.0393 49.8377C40.8561 49.8768 20.9731 49.8768 0.735352 49.8377L0.738356 48.274Z" fill="black"/>
<path d="M77.0367 110.023C69.4581 117.333 62.3825 125.168 55.8877 133.464C54.0398 135.821 52.2387 138.213 50.4845 140.641C50.1765 141.067 50.4104 141.732 50.8353 141.978C51.3265 142.267 51.8606 142.056 52.1686 141.626C58.2774 133.182 64.9749 125.168 72.187 117.65C74.222 115.527 76.2999 113.447 78.4167 111.407C79.3211 110.531 77.9411 109.151 77.0367 110.023Z" fill="black"/>
<path d="M74.5812 102.744C71.9147 102.974 70.059 105.285 68.2696 107.04C66.1996 109.065 64.1451 111.106 62.1023 113.162C58.0207 117.271 53.9936 121.438 50.0289 125.66C47.7873 128.049 45.5691 130.457 43.3704 132.885C42.5283 133.815 43.9044 135.199 44.7504 134.269C52.3173 125.914 60.1375 117.791 68.1644 109.878C69.2754 108.78 70.3904 107.685 71.5131 106.598C72.3513 105.789 73.3532 104.804 74.5773 104.698C75.1036 104.651 75.5519 104.28 75.5519 103.721C75.5558 103.224 75.1075 102.697 74.5812 102.744Z" fill="black"/>
<path d="M43.7399 132.67C39.1085 131.055 34.3524 134.128 31.7366 137.819C28.844 141.896 27.8382 147.24 28.6373 152.135C29.0701 154.774 30.1343 157.252 31.4052 159.582C32.7424 162.033 34.2511 164.399 35.8144 166.709C36.6057 167.874 37.4166 169.027 38.2509 170.161C39.0111 171.197 39.7908 172.233 40.3911 173.374C41.3345 175.161 41.8257 177.753 40.1767 179.305C39.3346 180.099 38.0988 180.372 36.9839 180.478C35.5064 180.615 34.0016 180.56 32.5241 180.466C29.3625 180.263 26.2437 179.649 23.2263 178.691C22.0295 178.312 21.5149 180.196 22.7078 180.576C25.4562 181.447 28.2826 182.022 31.1518 182.307C32.5865 182.452 34.0289 182.515 35.4674 182.503C36.6486 182.491 37.8571 182.417 38.9994 182.092C40.1221 181.772 41.2098 181.185 41.9544 180.267C42.7341 179.301 43.12 178.132 43.198 176.897C43.3578 174.309 41.9973 172.01 40.5354 169.997C38.898 167.733 37.2802 165.466 35.7832 163.108C34.3135 160.798 32.836 158.433 31.7678 155.903C29.8654 151.396 29.7991 146.177 31.8029 141.685C32.8554 139.332 34.3992 137.189 36.5629 135.747C38.5472 134.425 40.9096 133.753 43.2253 134.562C43.7243 134.734 44.2895 134.363 44.426 133.878C44.5663 133.331 44.2389 132.842 43.7399 132.67Z" fill="black"/>
<path d="M35.2302 16.2834C30.942 20.4938 26.2093 24.454 23.0398 29.6457C20.3187 34.1024 18.3305 40.8422 22.5993 45.0448C24.3614 46.7806 26.7668 47.7188 29.1877 48.0081C31.2811 48.2583 33.936 47.9886 35.5148 46.4248C36.8871 45.0683 36.8325 43.0627 36.3491 41.327C36.0879 40.3848 35.7059 39.4778 35.316 38.5826C35.125 38.1486 34.9301 37.7186 34.7351 37.2847C34.6533 37.1009 34.5675 36.9172 34.4856 36.7334C34.4389 36.6279 34.3921 36.5262 34.3453 36.4207C34.3258 36.3777 34.2166 36.1157 34.2751 36.2604C33.1602 33.6098 32.7976 30.6973 33.1173 27.8435C33.4565 24.8215 34.8716 22.2257 36.162 19.5321C36.505 18.8167 36.8286 18.0895 37.1249 17.3546C37.3237 16.8659 36.9105 16.2795 36.4427 16.1505C35.8852 15.998 35.4408 16.342 35.2419 16.8346C34.1738 19.4852 32.6105 21.9168 31.784 24.6651C30.9147 27.5503 30.8406 30.7012 31.4371 33.6489C31.8542 35.717 32.743 37.5583 33.5851 39.4739C33.8931 40.1776 34.2322 41.0064 34.4661 41.8508C34.5207 42.0424 34.5675 42.2339 34.6104 42.4294C34.6299 42.5232 34.6494 42.6171 34.665 42.7148C34.6728 42.7617 34.6806 42.8086 34.6884 42.8555C34.7117 43.0158 34.6728 42.7148 34.6923 42.8751C34.7118 43.0549 34.7234 43.2387 34.7273 43.4185C34.7273 43.5084 34.7273 43.5944 34.7234 43.6843C34.7195 43.7508 34.6923 44.0049 34.7196 43.8094C34.6962 43.9775 34.6533 44.1378 34.6065 44.2981C34.587 44.3646 34.5207 44.5327 34.587 44.3763C34.5441 44.4779 34.4895 44.5757 34.435 44.6734C34.3921 44.7477 34.3453 44.8181 34.2946 44.8845C34.3921 44.7516 34.2673 44.9119 34.2283 44.9549C34.166 45.0213 34.1036 45.0839 34.0373 45.1464C34.0022 45.1777 33.9671 45.209 33.9321 45.2364C33.8112 45.3341 34.0334 45.166 33.9009 45.2559C33.1719 45.7563 32.2285 46.0143 31.3552 46.0925C29.2539 46.2763 27.0981 45.8071 25.297 44.6969C23.3634 43.5045 22.2212 41.5615 22.0847 39.2823C21.9288 36.6826 22.8293 34.1102 24.0378 31.8467C26.7005 26.8544 31.0472 23.0193 35.0782 19.1607C35.5928 18.6681 36.1035 18.1755 36.6064 17.6791C37.5069 16.7838 36.1269 15.3999 35.2302 16.2834Z" fill="black"/>
</svg>

<svg xmlns="http://www.w3.org/2000/svg" width="200" height="200" fill="none"><path fill="#000" d="M0 49.11C.16 66.677 6.43 83.35 14.72 98.605c8.316 15.297 20.105 28.327 32.15 40.731 5.864 6.04 12.055 11.76 18.862 16.721 7.028 5.125 15.024 9.046 23.055 12.33q2.989 1.22 6.03 2.307c1.989.711 4.27 1.169 6.098 2.236 1.84 1.071 3.855 1.704 5.863 2.388a163.14 163.14 0 0 0 32.899 7.526c17.738 2.166 35.838 1.306 53.26-2.705a149 149 0 0 0 6.374-1.619c1.209-.332.694-2.22-.518-1.884-17.036 4.707-34.825 6.321-52.434 4.926a159 159 0 0 1-26.085-4.297 164 164 0 0 1-15.745-4.804c-1.092-.395-2.016-.915-3.037-1.451-1.797-.946-3.914-1.403-5.824-2.083-8.101-2.882-15.918-6.494-23.333-10.861-7.227-4.257-13.675-9.863-19.679-15.696-5.968-5.801-11.703-11.924-17.22-18.159-5.726-6.474-10.942-13.39-15.538-20.72A134.6 134.6 0 0 1 8.257 80.21c-3.04-7.94-5.24-16.251-6-24.739a79 79 0 0 1-.308-6.36c-.011-1.255-1.96-1.26-1.949 0"/><path fill="#000" d="M97.843 135.207c5.297 4.781 11.11 8.953 17.137 12.749 5.988 3.772 12.19 7.189 18.393 10.594 6.319 3.472 12.771 6.681 19.433 9.445 6.663 2.764 13.516 5.075 20.53 6.763a128.4 128.4 0 0 0 25.523 3.503c1.255.047 1.251-1.911 0-1.954a126.6 126.6 0 0 1-22.506-2.858c-6.986-1.537-13.828-3.683-20.482-6.306-6.604-2.604-13.013-5.684-19.263-9.054-6.182-3.331-12.342-6.736-18.338-10.395-5.96-3.64-11.757-7.588-17.071-12.135a102 102 0 0 1-1.973-1.736c-.935-.836-2.32.54-1.383 1.384"/><path fill="#000" d="M60.453 49.36a162 162 0 0 0 2.312 19.043 153 153 0 0 0 4.55 18.378 155 155 0 0 0 7.867 20.001l.503 1.048c.206.426.471.723.803 1.055.257.258.542.497.717.817.187.344.367.696.554 1.04q.544.998 1.11 1.978a82 82 0 0 0 4.909 7.491 85.2 85.2 0 0 0 13.695 14.66c.401.34.982.395 1.38 0 .347-.348.405-1.04 0-1.384a84.4 84.4 0 0 1-12.183-12.666 80 80 0 0 1-4.993-7.213 77 77 0 0 1-2.745-4.821c-.214-.406-.48-.703-.803-1.028-.265-.266-.55-.504-.717-.84-.176-.344-.336-.696-.503-1.048a151 151 0 0 1-7.006-17.432 152 152 0 0 1-4.79-18.132 155 155 0 0 1-2.706-20.95c-.082-1.247-2.031-1.255-1.954.004"/><path fill="#000" fill-rule="evenodd" d="M.738 48.274c20.236.039 40.117.039 60.298 0l.003 1.564c-20.183.039-40.066.039-60.304 0z" clip-rule="evenodd"/><path fill="#000" d="M77.037 110.023a227 227 0 0 0-21.15 23.441 229 229 0 0 0-5.403 7.177c-.308.426-.074 1.091.351 1.337.492.289 1.026.078 1.334-.352a226 226 0 0 1 26.248-30.219c.904-.876-.476-2.256-1.38-1.384M74.581 102.744c-2.666.23-4.522 2.541-6.311 4.296a619.118 619.118 0 0 0-18.24 18.62 555 555 0 0 0-6.66 7.225c-.842.93.534 2.314 1.38 1.384a597 597 0 0 1 23.414-24.391 457 457 0 0 1 3.35-3.28c.837-.809 1.84-1.794 3.063-1.9.527-.047.975-.418.975-.977.004-.497-.445-1.024-.97-.977"/><path fill="#000" d="M43.74 132.67c-4.632-1.615-9.388 1.458-12.003 5.149-2.893 4.077-3.899 9.421-3.1 14.316.433 2.639 1.497 5.117 2.768 7.447 1.337 2.451 2.846 4.817 4.41 7.127a112 112 0 0 0 2.436 3.452c.76 1.036 1.54 2.072 2.14 3.213.944 1.787 1.435 4.379-.214 5.931-.842.794-2.078 1.067-3.193 1.173-1.478.137-2.982.082-4.46-.012-3.161-.203-6.28-.817-9.298-1.775-1.197-.379-1.711 1.505-.518 1.885a41.5 41.5 0 0 0 8.444 1.731 40 40 0 0 0 4.315.196c1.182-.012 2.39-.086 3.532-.411 1.123-.32 2.21-.907 2.955-1.825.78-.966 1.166-2.135 1.244-3.37.16-2.588-1.2-4.887-2.663-6.9-1.637-2.264-3.255-4.531-4.752-6.889-1.47-2.31-2.947-4.675-4.015-7.205-1.903-4.507-1.969-9.726.035-14.218 1.052-2.353 2.596-4.496 4.76-5.938 1.984-1.322 4.347-1.994 6.662-1.185.5.172 1.064-.199 1.201-.684.14-.547-.187-1.036-.686-1.208M35.23 16.283c-4.288 4.21-9.02 8.171-12.19 13.363-2.721 4.456-4.71 11.196-.44 15.399 1.761 1.736 4.167 2.674 6.588 2.963 2.093.25 4.748-.02 6.327-1.583 1.372-1.357 1.318-3.362.834-5.098-.261-.942-.643-1.85-1.033-2.744q-.288-.649-.58-1.298-.126-.276-.25-.552-.07-.156-.14-.312c-.02-.043-.13-.305-.07-.16-1.116-2.651-1.478-5.564-1.159-8.418.34-3.021 1.755-5.617 3.045-8.31.343-.716.667-1.444.963-2.178.199-.49-.215-1.076-.682-1.204-.558-.153-1.002.191-1.201.684-1.068 2.65-2.631 5.082-3.458 7.83-.87 2.885-.943 6.036-.347 8.984.417 2.068 1.306 3.91 2.148 5.825.308.704.647 1.532.881 2.377q.082.286.144.578.031.14.055.286l.023.14c.024.16-.015-.14.004.02q.03.272.035.544c0 .09 0 .175-.004.265-.004.067-.03.32-.003.125a3.4 3.4 0 0 1-.114.49c-.019.066-.085.234-.019.077-.043.102-.098.2-.152.297q-.065.112-.14.212c.097-.133-.028.027-.067.07a4 4 0 0 1-.19.191q-.053.049-.106.09c-.12.098.101-.07-.031.02-.73.5-1.673.758-2.546.837-2.101.183-4.257-.286-6.058-1.396-1.934-1.193-3.076-3.136-3.212-5.415-.156-2.6.744-5.172 1.953-7.435 2.663-4.993 7.01-8.828 11.04-12.686q.773-.739 1.528-1.482c.9-.895-.48-2.28-1.376-1.396"/></svg>
